X:1
T:Title
%%score { 1 | 2 }
L:1/8
Q:1/4=100
M:4/4
K:F
V:1 treble nm="Grand Piano"
V:2 treble 
V:1
 F3 A BA G>B | A4 F4 | F3 E DF B>B | A6 z2 | A3 A cc B>F | A4 F4 | E3 D C2 G2 | F6 z2 | %8
w: P.~P.~Bilhorn * * * * *||||||||
[M:9/8] A3 ccB B3 | G3 ddc A3 |[M:4/4] A3 A ccBA | [EG]6 z2 |[M:9/8] A3 ccB B3 | G3 ddc A3 | %14
w: ||||||
[M:4/4] FF[DG][DG] F2 E2[Q:1/4=99][Q:1/4=97][Q:1/4=96][Q:1/4=94][Q:1/4=93][Q:1/4=91][Q:1/4=90][Q:1/4=88][Q:1/4=87][Q:1/4=85][Q:1/4=84][Q:1/4=82][Q:1/4=81][Q:1/4=79][Q:1/4=78][Q:1/4=76] | %15
w: |
 F6 z2 |] %16
w: |
V:2
 A,3 C DC B,>D | C4 A,4 | D3 C B,A, D>D | C6 z2 | C3 C EE D>D | C4[K:bass] A,4 | G,3 B, A,2 B,2 | %7
 A,6 z2 |[M:9/8][K:treble] [F,CF]3 [F,A,F][F,A,F][G,CE] [G,CE]3 | %9
 [B,CE]3 [B,CE][B,CE][A,CF][K:bass] [F,CF]3 |[M:4/4] [F,CF]3 [F,CF] [F,A,F][F,A,F][F,DF][F,CF] | %11
 [C,C]6 z2 |[M:9/8][K:treble] [F,CF]3 [F,A,F][F,A,F][G,CE] [G,CE]3 | %13
 [B,CE]3 [B,CE][B,CE][A,CF][K:bass] [F,CF]3 |[M:4/4] [A,D][D,A,D][B,,B,][B,,B,] [C,A,C]2 [C,B,C]2 | %15
 [F,A,C]6 z2 |] %16

